images/client1.svg

<svg width="170" height="90" fill="none" xmlns="http://www.w3.org/2000/svg"><rect x=".5" y=".5" width="169" height="89" rx="3.5" stroke="#AFB1B8"/><path d="M69 20l7.3076 6.918h20.3848v19.2978L104 53.1338V20H69z" fill="#AFB1B8"/><path d="M63 26.6265v32.1872h34V46.0195L76.5231 26.6344 63 26.6265zm27.5231 27.479h-22.143V32.4579h1.5652v20.1818h20.5778v1.4658zM72.791 64.7837l.8179-1.6846h.6836l-1.1914 2.2461v1.3086h-.6201v-1.3086l-1.1939-2.2461h.686l.8179 1.6846zm3.5108 1.0425h-1.377l-.2881.8276h-.6421l1.3428-3.5547h.5542l1.3452 3.5547h-.6445l-.2905-.8276zm-1.2037-.4981h1.0303l-.5151-1.4746-.5152 1.4746zm3.6377.3662a.8074.8074 0 01.1343-.4516c.0895-.1384.2661-.3019.5298-.4907-.1383-.1742-.2352-.3223-.2905-.4444-.0537-.1221-.0806-.2401-.0806-.354 0-.2783.0846-.498.2539-.6592.1693-.1627.3972-.2441.6836-.2441.2588 0 .4704.0765.6348.2295.166.1514.249.3393.249.564a.7847.7847 0 01-.1123.4101c-.0749.1237-.1978.2474-.3687.3711l-.2417.1758.6861.8105c.0993-.1953.1489-.4126.1489-.6518h.5151c0 .4378-.1025.7967-.3076 1.0766l.5225.6177h-.6885l-.2002-.2368c-.2539.1904-.5566.2856-.9082.2856s-.6331-.0927-.8447-.2783c-.21-.1872-.315-.4305-.315-.73zm1.1768.5347c.2002 0 .3874-.0667.5615-.2002l-.7763-.9155-.0757.0537c-.1953.1481-.293.3174-.293.5078 0 .1644.0529.2979.1587.4004.1058.1025.2474.1538.4248.1538zm-.3272-2.29c0 .1367.0839.3084.2515.5151l.271-.1855.0757-.0611c.1009-.0895.1514-.2042.1514-.3442 0-.0928-.035-.1717-.105-.2368-.07-.0668-.1587-.1001-.2661-.1001-.1156 0-.2076.039-.2759.1172-.0684.0781-.1026.1765-.1026.2954zm6.4576 1.5576c-.0358.3792-.1758.6754-.42.8887-.2441.2115-.5688.3173-.9741.3173-.2832 0-.533-.0667-.7495-.2002-.2148-.135-.3808-.3263-.498-.5737-.1172-.2474-.1783-.5347-.1831-.8618v-.332c0-.3353.0594-.6307.1782-.8863.1188-.2555.2889-.4524.5102-.5908.223-.1383.4802-.2075.7715-.2075.3923 0 .708.1066.9473.3198.2392.2132.3784.5143.4175.9033h-.6153c-.0293-.2555-.1041-.4394-.2246-.5517-.1188-.114-.2938-.1709-.5249-.1709-.2685 0-.4752.0985-.6201.2954-.1432.1953-.2165.4826-.2197.8618v.3149c0 .3842.0683.6771.2051.879.1383.2018.3401.3027.6054.3027.2425 0 .4248-.0545.5469-.1636.1221-.109.1994-.2905.2319-.5444h.6153zm3.3911-.5274c0 .3483-.0602.6543-.1807.918-.1204.2621-.293.4639-.5176.6055-.2229.1399-.4801.2099-.7714.2099-.2881 0-.5453-.07-.7715-.2099-.2246-.1416-.3988-.3426-.5225-.6031-.1221-.2604-.1839-.5607-.1855-.9008v-.2002c0-.3467.061-.6527.1831-.918.1237-.2653.297-.4679.52-.6079.2246-.1416.4818-.2124.7715-.2124.2897 0 .546.07.769.21.2246.1383.398.3385.52.6005.1221.2605.184.564.1856.9107v.1977zm-.6177-.1855c0-.3939-.0749-.6958-.2246-.9058-.1481-.2099-.3589-.3149-.6323-.3149-.267 0-.4761.105-.6275.3149-.1497.2084-.2262.5038-.2295.8863v.205c0 .3907.0757.6926.2271.9058.153.2132.3646.3198.6348.3198.2734 0 .4834-.1041.6298-.3125.1482-.2083.2222-.5127.2222-.9131v-.1855z" fill="#AFB1B8"/></svg>

<svg width="170" height="90" viewBox="0 0 170 90" fill="none" xmlns="http://www.w3.org/2000/svg">
<rect x="0.5" y="0.5" width="169" height="89" rx="3.5" stroke="#AFB1B8"/>
<path d="M69 20L76.3076 26.918H96.6924V46.2158L104 53.1338V20H69Z" fill="#AFB1B8"/>
<path d="M63 26.6265V58.8137H97V46.0195L76.5231 26.6344L63 26.6265ZM90.5231 54.1055H68.3801V32.4579H69.9453V52.6397H90.5231V54.1055Z" fill="#AFB1B8"/>
<path d="M72.791 64.7837L73.6089 63.0991H74.2925L73.1011 65.3452V66.6538H72.481V65.3452L71.2871 63.0991H71.9731L72.791 64.7837ZM76.3018 65.8262H74.9248L74.6367 66.6538H73.9946L75.3374 63.0991H75.8916L77.2368 66.6538H76.5923L76.3018 65.8262ZM75.0981 65.3281H76.1284L75.6133 63.8535L75.0981 65.3281ZM78.7358 65.6943C78.7358 65.5299 78.7806 65.3794 78.8701 65.2427C78.9596 65.1043 79.1362 64.9408 79.3999 64.752C79.2616 64.5778 79.1647 64.4297 79.1094 64.3076C79.0557 64.1855 79.0288 64.0675 79.0288 63.9536C79.0288 63.6753 79.1134 63.4556 79.2827 63.2944C79.452 63.1317 79.6799 63.0503 79.9663 63.0503C80.2251 63.0503 80.4367 63.1268 80.6011 63.2798C80.7671 63.4312 80.8501 63.6191 80.8501 63.8438C80.8501 63.9919 80.8127 64.1286 80.7378 64.2539C80.6629 64.3776 80.54 64.5013 80.3691 64.625L80.1274 64.8008L80.8135 65.6113C80.9128 65.416 80.9624 65.1987 80.9624 64.9595H81.4775C81.4775 65.3973 81.375 65.7562 81.1699 66.0361L81.6924 66.6538H81.0039L80.8037 66.417C80.5498 66.6074 80.2471 66.7026 79.8955 66.7026C79.5439 66.7026 79.2624 66.6099 79.0508 66.4243C78.8408 66.2371 78.7358 65.9938 78.7358 65.6943ZM79.9126 66.229C80.1128 66.229 80.3 66.1623 80.4741 66.0288L79.6978 65.1133L79.6221 65.167C79.4268 65.3151 79.3291 65.4844 79.3291 65.6748C79.3291 65.8392 79.382 65.9727 79.4878 66.0752C79.5936 66.1777 79.7352 66.229 79.9126 66.229ZM79.5854 63.939C79.5854 64.0757 79.6693 64.2474 79.8369 64.4541L80.1079 64.2686L80.1836 64.2075C80.2845 64.118 80.335 64.0033 80.335 63.8633C80.335 63.7705 80.3 63.6916 80.23 63.6265C80.16 63.5597 80.0713 63.5264 79.9639 63.5264C79.8483 63.5264 79.7563 63.5654 79.688 63.6436C79.6196 63.7217 79.5854 63.8201 79.5854 63.939ZM86.043 65.4966C86.0072 65.8758 85.8672 66.172 85.623 66.3853C85.3789 66.5968 85.0542 66.7026 84.6489 66.7026C84.3657 66.7026 84.1159 66.6359 83.8994 66.5024C83.6846 66.3674 83.5186 66.1761 83.4014 65.9287C83.2842 65.6813 83.2231 65.394 83.2183 65.0669V64.7349C83.2183 64.3996 83.2777 64.1042 83.3965 63.8486C83.5153 63.5931 83.6854 63.3962 83.9067 63.2578C84.1297 63.1195 84.3869 63.0503 84.6782 63.0503C85.0705 63.0503 85.3862 63.1569 85.6255 63.3701C85.8647 63.5833 86.0039 63.8844 86.043 64.2734H85.4277C85.3984 64.0179 85.3236 63.834 85.2031 63.7217C85.0843 63.6077 84.9093 63.5508 84.6782 63.5508C84.4097 63.5508 84.203 63.6493 84.0581 63.8462C83.9149 64.0415 83.8416 64.3288 83.8384 64.708V65.0229C83.8384 65.4071 83.9067 65.7 84.0435 65.9019C84.1818 66.1037 84.3836 66.2046 84.6489 66.2046C84.8914 66.2046 85.0737 66.1501 85.1958 66.041C85.3179 65.932 85.3952 65.7505 85.4277 65.4966H86.043ZM89.4341 64.9692C89.4341 65.3175 89.3739 65.6235 89.2534 65.8872C89.133 66.1493 88.9604 66.3511 88.7358 66.4927C88.5129 66.6326 88.2557 66.7026 87.9644 66.7026C87.6763 66.7026 87.4191 66.6326 87.1929 66.4927C86.9683 66.3511 86.7941 66.1501 86.6704 65.8896C86.5483 65.6292 86.4865 65.3289 86.4849 64.9888V64.7886C86.4849 64.4419 86.5459 64.1359 86.668 63.8706C86.7917 63.6053 86.965 63.4027 87.188 63.2627C87.4126 63.1211 87.6698 63.0503 87.9595 63.0503C88.2492 63.0503 88.5055 63.1203 88.7285 63.2603C88.9531 63.3986 89.1265 63.5988 89.2485 63.8608C89.3706 64.1213 89.4325 64.4248 89.4341 64.7715V64.9692ZM88.8164 64.7837C88.8164 64.3898 88.7415 64.0879 88.5918 63.8779C88.4437 63.668 88.2329 63.563 87.9595 63.563C87.6925 63.563 87.4834 63.668 87.332 63.8779C87.1823 64.0863 87.1058 64.3817 87.1025 64.7642V64.9692C87.1025 65.3599 87.1782 65.6618 87.3296 65.875C87.4826 66.0882 87.6942 66.1948 87.9644 66.1948C88.2378 66.1948 88.4478 66.0907 88.5942 65.8823C88.7424 65.674 88.8164 65.3696 88.8164 64.9692V64.7837Z" fill="#AFB1B8"/>
</svg>
